assets/people.svg

<svg xmlns="http://www.w3.org/2000/svg" fill="none" viewBox="0 0 28 21">
  <path stroke="#2A2238" stroke-width="1.5" d="M12.2557 20.25h-.0004c-.0039-.0001-.0132-.0005-.0271-.0015-.0279-.002-.0726-.0064-.1283-.0156-.115-.0192-.2568-.0561-.3895-.1225-.1298-.0649-.2367-.1504-.3129-.2647-.0731-.1096-.1475-.2894-.1475-.5957 0-.6955.3732-2.2725 1.5694-3.6682C13.985 14.222 15.962 13 19.25 13c3.3413 0 5.3114 1.0088 6.4517 2.2305 1.1548 1.2373 1.5483 2.7889 1.5483 4.0195v.9509c0 .0265-.0213.0491-.05.0491H12.2557ZM22.432 8.43198C21.5881 9.27589 20.4435 9.75 19.25 9.75s-2.3381-.47411-3.182-1.31802C15.2241 7.58807 14.75 6.44347 14.75 5.25c0-1.19347.4741-2.33807 1.318-3.18198C16.9119 1.22411 18.0565.75 19.25.75s2.3381.47411 3.182 1.31802c.8439.84391 1.318 1.98851 1.318 3.18198 0 1.19347-.4741 2.33807-1.318 3.18198ZM8.75 13v.0001L8.75872 13c.60818-.0071 1.21487.0396 1.81308.1391C8.90811 14.8684 8.00182 17.0669 8 19.2435c-.00556.339.02585.6764.09299 1.0065H.8c-.02872 0-.05-.0226-.05-.0491V19.25c0-1.4508.4015-2.9889 1.53872-4.163C3.419 13.9201 5.38552 13 8.75 13Zm1.6883-4.31174C9.75844 9.36808 8.83641 9.75 7.875 9.75c-.96141 0-1.88344-.38192-2.56326-1.06174C4.63192 8.00844 4.25 7.08641 4.25 6.125c0-.96141.38192-1.88344 1.06174-2.56326C5.99156 2.88192 6.91359 2.5 7.875 2.5c.96141 0 1.88344.38192 2.5633 1.06174C11.1181 4.24156 11.5 5.16359 11.5 6.125c0 .96141-.3819 1.88344-1.0617 2.56326Z"/>
</svg>

<svg width="28" height="21" viewBox="0 0 28 21" fill="none" xmlns="http://www.w3.org/2000/svg">
<path d="M12.2557 20.25C12.2556 20.25 12.2555 20.25 12.2553 20.25C12.2514 20.2499 12.2421 20.2495 12.2282 20.2485C12.2003 20.2465 12.1556 20.2421 12.0999 20.2329C11.9849 20.2137 11.8431 20.1768 11.7104 20.1104C11.5806 20.0455 11.4737 19.96 11.3975 19.8457C11.3244 19.7361 11.25 19.5563 11.25 19.25C11.25 18.5545 11.6232 16.9775 12.8194 15.5818C13.985 14.222 15.962 13 19.25 13C22.5913 13 24.5614 14.0088 25.7017 15.2305C26.8565 16.4678 27.25 18.0194 27.25 19.25V19.2524V19.2547V19.2571V19.2594V19.2618V19.2641V19.2665V19.2688V19.2711V19.2735V19.2758V19.2781V19.2805V19.2828V19.2851V19.2875V19.2898V19.2921V19.2944V19.2967V19.299V19.3014V19.3037V19.306V19.3083V19.3106V19.3129V19.3152V19.3175V19.3198V19.3221V19.3244V19.3267V19.3289V19.3312V19.3335V19.3358V19.3381V19.3404V19.3426V19.3449V19.3472V19.3494V19.3517V19.354V19.3562V19.3585V19.3608V19.363V19.3653V19.3675V19.3698V19.372V19.3743V19.3765V19.3787V19.381V19.3832V19.3855V19.3877V19.3899V19.3922V19.3944V19.3966V19.3988V19.4011V19.4033V19.4055V19.4077V19.4099V19.4121V19.4143V19.4165V19.4187V19.4209V19.4232V19.4253V19.4275V19.4297V19.4319V19.4341V19.4363V19.4385V19.4407V19.4429V19.445V19.4472V19.4494V19.4516V19.4537V19.4559V19.4581V19.4602V19.4624V19.4646V19.4667V19.4689V19.4711V19.4732V19.4754V19.4775V19.4797V19.4818V19.4839V19.4861V19.4882V19.4904V19.4925V19.4946V19.4968V19.4989V19.501V19.5031V19.5053V19.5074V19.5095V19.5116V19.5137V19.5159V19.518V19.5201V19.5222V19.5243V19.5264V19.5285V19.5306V19.5327V19.5348V19.5369V19.539V19.5411V19.5432V19.5452V19.5473V19.5494V19.5515V19.5536V19.5556V19.5577V19.5598V19.5618V19.5639V19.566V19.568V19.5701V19.5722V19.5742V19.5763V19.5783V19.5804V19.5824V19.5845V19.5865V19.5886V19.5906V19.5927V19.5947V19.5967V19.5988V19.6008V19.6028V19.6049V19.6069V19.6089V19.6109V19.6129V19.615V19.617V19.619V19.621V19.623V19.625V19.627V19.629V19.631V19.633V19.635V19.637V19.639V19.641V19.643V19.645V19.647V19.649V19.651V19.6529V19.6549V19.6569V19.6589V19.6609V19.6628V19.6648V19.6668V19.6687V19.6707V19.6727V19.6746V19.6766V19.6785V19.6805V19.6824V19.6844V19.6863V19.6883V19.6902V19.6922V19.6941V19.696V19.698V19.6999V19.7019V19.7038V19.7057V19.7076V19.7096V19.7115V19.7134V19.7153V19.7172V19.7192V19.7211V19.723V19.7249V19.7268V19.7287V19.7306V19.7325V19.7344V19.7363V19.7382V19.7401V19.742V19.7439V19.7458V19.7477V19.7496V19.7514V19.7533V19.7552V19.7571V19.759V19.7608V19.7627V19.7646V19.7664V19.7683V19.7702V19.772V19.7739V19.7758V19.7776V19.7795V19.7813V19.7832V19.785V19.7869V19.7887V19.7906V19.7924V19.7942V19.7961V19.7979V19.7998V19.8016V19.8034V19.8052V19.8071V19.8089V19.8107V19.8125V19.8144V19.8162V19.818V19.8198V19.8216V19.8234V19.8252V19.8271V19.8289V19.8307V19.8325V19.8343V19.8361V19.8379V19.8396V19.8414V19.8432V19.845V19.8468V19.8486V19.8504V19.8522V19.8539V19.8557V19.8575V19.8593V19.861V19.8628V19.8646V19.8663V19.8681V19.8699V19.8716V19.8734V19.8751V19.8769V19.8786V19.8804V19.8821V19.8839V19.8856V19.8874V19.8891V19.8909V19.8926V19.8943V19.8961V19.8978V19.8995V19.9013V19.903V19.9047V19.9065V19.9082V19.9099V19.9116V19.9133V19.915V19.9168V19.9185V19.9202V19.9219V19.9236V19.9253V19.927V19.9287V19.9304V19.9321V19.9338V19.9355V19.9372V19.9389V19.9406V19.9422V19.9439V19.9456V19.9473V19.949V19.9507V19.9523V19.954V19.9557V19.9573V19.959V19.9607V19.9623V19.964V19.9657V19.9673V19.969V19.9706V19.9723V19.9739V19.9756V19.9772V19.9789V19.9805V19.9822V19.9838V19.9855V19.9871V19.9887V19.9904V19.992V19.9936V19.9953V19.9969V19.9985V20.0002V20.0018V20.0034V20.005V20.0066V20.0082V20.0099V20.0115V20.0131V20.0147V20.0163V20.0179V20.0195V20.0211V20.0227V20.0243V20.0259V20.0275V20.0291V20.0307V20.0323V20.0339V20.0354V20.037V20.0386V20.0402V20.0418V20.0433V20.0449V20.0465V20.0481V20.0496V20.0512V20.0528V20.0543V20.0559V20.0575V20.059V20.0606V20.0621V20.0637V20.0652V20.0668V20.0683V20.0699V20.0714V20.073V20.0745V20.0761V20.0776V20.0791V20.0807V20.0822V20.0838V20.0853V20.0868V20.0883V20.0899V20.0914V20.0929V20.0944V20.0959V20.0975V20.099V20.1005V20.102V20.1035V20.105V20.1065V20.108V20.1095V20.111V20.1125V20.114V20.1155V20.117V20.1185V20.12V20.1215V20.123V20.1245V20.126V20.1275V20.1289V20.1304V20.1319V20.1334V20.1348V20.1363V20.1378V20.1393V20.1407V20.1422V20.1437V20.1451V20.1466V20.148V20.1495V20.151V20.1524V20.1539V20.1553V20.1568V20.1582V20.1597V20.1611V20.1626V20.164V20.1654V20.1669V20.1683V20.1697V20.1712V20.1726V20.174V20.1755V20.1769V20.1783V20.1797V20.1812V20.1826V20.184V20.1854V20.1868V20.1883V20.1897V20.1911V20.1925V20.1939V20.1953V20.1967V20.1981V20.1995V20.2009C27.25 20.2274 27.2287 20.25 27.2 20.25H12.2557ZM22.432 8.43198C21.5881 9.27589 20.4435 9.75 19.25 9.75C18.0565 9.75 16.9119 9.27589 16.068 8.43198C15.2241 7.58807 14.75 6.44347 14.75 5.25C14.75 4.05653 15.2241 2.91193 16.068 2.06802C16.9119 1.22411 18.0565 0.75 19.25 0.75C20.4435 0.75 21.5881 1.22411 22.432 2.06802C23.2759 2.91193 23.75 4.05653 23.75 5.25C23.75 6.44347 23.2759 7.58807 22.432 8.43198Z" stroke="#2A2238" stroke-width="1.5"/>
<path d="M8.75 13V13.0001L8.75872 13C9.3669 12.9929 9.97359 13.0396 10.5718 13.1391C8.90811 14.8684 8.00182 17.0669 8 19.2435C7.99444 19.5825 8.02585 19.9199 8.09299 20.25H0.8C0.77128 20.25 0.75 20.2274 0.75 20.2009V20.1995V20.1981V20.1967V20.1953V20.1939V20.1925V20.1911V20.1897V20.1883V20.1869V20.1854V20.184V20.1826V20.1812V20.1798V20.1783V20.1769V20.1755V20.1741V20.1726V20.1712V20.1698V20.1683V20.1669V20.1655V20.164V20.1626V20.1611V20.1597V20.1582V20.1568V20.1553V20.1539V20.1524V20.151V20.1495V20.1481V20.1466V20.1451V20.1437V20.1422V20.1407V20.1393V20.1378V20.1363V20.1349V20.1334V20.1319V20.1304V20.129V20.1275V20.126V20.1245V20.123V20.1215V20.12V20.1185V20.1171V20.1156V20.1141V20.1126V20.1111V20.1096V20.1081V20.1066V20.105V20.1035V20.102V20.1005V20.099V20.0975V20.096V20.0944V20.0929V20.0914V20.0899V20.0884V20.0868V20.0853V20.0838V20.0822V20.0807V20.0792V20.0776V20.0761V20.0745V20.073V20.0715V20.0699V20.0684V20.0668V20.0653V20.0637V20.0622V20.0606V20.059V20.0575V20.0559V20.0544V20.0528V20.0512V20.0497V20.0481V20.0465V20.0449V20.0434V20.0418V20.0402V20.0386V20.037V20.0355V20.0339V20.0323V20.0307V20.0291V20.0275V20.0259V20.0243V20.0227V20.0211V20.0195V20.0179V20.0163V20.0147V20.0131V20.0115V20.0099V20.0083V20.0066V20.005V20.0034V20.0018V20.0002V19.9985V19.9969V19.9953V19.9937V19.992V19.9904V19.9888V19.9871V19.9855V19.9838V19.9822V19.9806V19.9789V19.9773V19.9756V19.974V19.9723V19.9707V19.969V19.9673V19.9657V19.964V19.9624V19.9607V19.959V19.9574V19.9557V19.954V19.9523V19.9507V19.949V19.9473V19.9456V19.9439V19.9423V19.9406V19.9389V19.9372V19.9355V19.9338V19.9321V19.9304V19.9287V19.927V19.9253V19.9236V19.9219V19.9202V19.9185V19.9168V19.9151V19.9133V19.9116V19.9099V19.9082V19.9065V19.9047V19.903V19.9013V19.8996V19.8978V19.8961V19.8944V19.8926V19.8909V19.8891V19.8874V19.8857V19.8839V19.8822V19.8804V19.8787V19.8769V19.8752V19.8734V19.8716V19.8699V19.8681V19.8663V19.8646V19.8628V19.861V19.8593V19.8575V19.8557V19.8539V19.8522V19.8504V19.8486V19.8468V19.845V19.8432V19.8415V19.8397V19.8379V19.8361V19.8343V19.8325V19.8307V19.8289V19.8271V19.8253V19.8235V19.8216V19.8198V19.818V19.8162V19.8144V19.8126V19.8107V19.8089V19.8071V19.8053V19.8034V19.8016V19.7998V19.7979V19.7961V19.7943V19.7924V19.7906V19.7887V19.7869V19.785V19.7832V19.7813V19.7795V19.7776V19.7758V19.7739V19.7721V19.7702V19.7683V19.7665V19.7646V19.7627V19.7608V19.759V19.7571V19.7552V19.7533V19.7515V19.7496V19.7477V19.7458V19.7439V19.742V19.7401V19.7382V19.7363V19.7344V19.7325V19.7306V19.7287V19.7268V19.7249V19.723V19.7211V19.7192V19.7173V19.7153V19.7134V19.7115V19.7096V19.7077V19.7057V19.7038V19.7019V19.6999V19.698V19.6961V19.6941V19.6922V19.6902V19.6883V19.6863V19.6844V19.6825V19.6805V19.6785V19.6766V19.6746V19.6727V19.6707V19.6687V19.6668V19.6648V19.6628V19.6609V19.6589V19.6569V19.6549V19.653V19.651V19.649V19.647V19.645V19.643V19.641V19.6391V19.6371V19.6351V19.6331V19.6311V19.6291V19.6271V19.625V19.623V19.621V19.619V19.617V19.615V19.613V19.6109V19.6089V19.6069V19.6049V19.6028V19.6008V19.5988V19.5967V19.5947V19.5927V19.5906V19.5886V19.5865V19.5845V19.5825V19.5804V19.5784V19.5763V19.5742V19.5722V19.5701V19.5681V19.566V19.5639V19.5619V19.5598V19.5577V19.5557V19.5536V19.5515V19.5494V19.5473V19.5453V19.5432V19.5411V19.539V19.5369V19.5348V19.5327V19.5306V19.5285V19.5264V19.5243V19.5222V19.5201V19.518V19.5159V19.5138V19.5116V19.5095V19.5074V19.5053V19.5032V19.501V19.4989V19.4968V19.4946V19.4925V19.4904V19.4882V19.4861V19.484V19.4818V19.4797V19.4775V19.4754V19.4732V19.4711V19.4689V19.4668V19.4646V19.4624V19.4603V19.4581V19.4559V19.4538V19.4516V19.4494V19.4472V19.4451V19.4429V19.4407V19.4385V19.4363V19.4341V19.4319V19.4298V19.4276V19.4254V19.4232V19.421V19.4188V19.4166V19.4144V19.4121V19.4099V19.4077V19.4055V19.4033V19.4011V19.3988V19.3966V19.3944V19.3922V19.3899V19.3877V19.3855V19.3832V19.381V19.3788V19.3765V19.3743V19.372V19.3698V19.3675V19.3653V19.363V19.3608V19.3585V19.3563V19.354V19.3517V19.3495V19.3472V19.3449V19.3426V19.3404V19.3381V19.3358V19.3335V19.3313V19.329V19.3267V19.3244V19.3221V19.3198V19.3175V19.3152V19.3129V19.3106V19.3083V19.306V19.3037V19.3014V19.2991V19.2968V19.2944V19.2921V19.2898V19.2875V19.2851V19.2828V19.2805V19.2782V19.2758V19.2735V19.2712V19.2688V19.2665V19.2641V19.2618V19.2594V19.2571V19.2547V19.2524V19.25C0.75 17.7992 1.1515 16.2611 2.28872 15.087C3.419 13.9201 5.38552 13 8.75 13Z" stroke="#2A2238" stroke-width="1.5"/>
<path d="M10.4383 8.68826C9.75844 9.36808 8.83641 9.75 7.875 9.75C6.91359 9.75 5.99156 9.36808 5.31174 8.68826C4.63192 8.00844 4.25 7.08641 4.25 6.125C4.25 5.16359 4.63192 4.24156 5.31174 3.56174C5.99156 2.88192 6.91359 2.5 7.875 2.5C8.83641 2.5 9.75844 2.88192 10.4383 3.56174C11.1181 4.24156 11.5 5.16359 11.5 6.125C11.5 7.08641 11.1181 8.00844 10.4383 8.68826Z" stroke="#2A2238" stroke-width="1.5"/>
</svg>
